X:69
T:Polocsia
O:rumania
C:RO
M:2/4
L:1/8
Q:1/4=216
K:Am
V:1
"Am" A2 c2 |A2 c2 |A2 c2 |A2 c2
|:"Am"  (3cBA B2 |Aa2 a| (3cBA B2 |Aa2 a|
(3cBA B2 |Aa2 a|"E7"  (3cBA B2 |"Am" Aa2 a:| |:
"Am" ~e2 ~a2 |~e2 ~a2 |c2  (3BAB |A/B/c/d/ e2 |
"Am" ~e2 ~a2 |~e2 ~a2 |"E7" ~c2  (3BAB |"Am" AE A2 :| |:
"C" ~c2 cG |~c2 ~e2 |~c2 cG |~c2 ~e2 |
~c2 cG |~c2 ~e2 |"E7" c3/2 B/AB |"Am" AE A2 :| |:
"Am" c3/2 B/AB |Aa2 a|c3/2 B/AB |Aa2 a|
c3/2 B/AB |Aa2 a|"E7" c3/2 B/AB |"Am" Aa z2 :| |:
"G" GA/B/ "C" c3/2 B/|"G" dc/ B/"C" cc |"G" GA/B/ "C" c3/2 B/|"G" dc/ B/"C" cc |
"G" GA/B/ "C" c3/2 B/|"G" dc/ B/"C" cc |"E7" c2  (3BAB |"Am" AE Az :|





